docs/styles/img/workProcess/44.svg

<svg width="302" height="350" viewBox="0 0 302 350" fill="none" xmlns="http://www.w3.org/2000/svg">
<path d="M297.49 258.401C298.525 258.401 299.302 260.1 299.82 263.497C300.855 266.408 301.373 269.805 301.373 273.687C301.373 277.569 300.855 281.209 299.82 284.605C299.302 287.517 298.525 288.973 297.49 288.973C280.403 288.002 257.362 287.032 228.367 286.061V404.707C228.367 410.045 226.295 413.442 222.153 414.898L197.3 426.544C194.193 427.515 192.64 428 192.64 428C191.087 428 190.31 426.059 190.31 422.177V285.333C157.69 284.363 94.0033 283.878 -0.750013 283.878C-3.3389 283.878 -5.41001 282.907 -6.96334 280.966C-8.51668 279.025 -8.25779 277.084 -6.18668 275.143L216.717 1.45579C217.752 0.485269 219.305 0 221.377 0C222.93 0 224.483 0.485269 226.037 1.45579C227.59 1.94106 228.367 2.91156 228.367 4.36734V259.857C241.311 259.857 264.352 259.372 297.49 258.401ZM34.9766 262.769C81.5766 262.769 133.354 262.283 190.31 261.313V62.5987L31.0933 257.673C29.54 259.129 29.0222 260.342 29.54 261.313C30.5755 262.283 32.3877 262.769 34.9766 262.769Z" fill="#FF3D00" fill-opacity="0.2"/>
</svg>

<svg width="302" height="350" fill="none" xmlns="http://www.w3.org/2000/svg"><path d="M297.49 258.401c1.035 0 1.812 1.699 2.33 5.096 1.035 2.911 1.553 6.308 1.553 10.19 0 3.882-.518 7.522-1.553 10.918-.518 2.912-1.295 4.368-2.33 4.368-17.087-.971-40.128-1.941-69.123-2.912v118.646c0 5.338-2.072 8.735-6.214 10.191L197.3 426.544 192.64 428c-1.553 0-2.33-1.941-2.33-5.823V285.333c-32.62-.97-96.307-1.455-191.06-1.455-2.589 0-4.66-.971-6.213-2.912-1.554-1.941-1.295-3.882.776-5.823L216.717 1.456C217.752.486 219.305 0 221.377 0c1.553 0 3.106.485 4.66 1.456 1.553.485 2.33 1.456 2.33 2.911v255.49c12.944 0 35.985-.485 69.123-1.456zm-262.513 4.368c46.6 0 98.377-.486 155.333-1.456V62.599L31.093 257.673c-1.553 1.456-2.07 2.669-1.553 3.64 1.036.97 2.848 1.456 5.437 1.456z" fill="#FF3D00" fill-opacity=".2"/></svg>
